X: 794
T: Aksak Opus
R: three-two
M: 3/2
K: Aminor
A|ef e2 G|de d2 F|cd BcB|EB A2 A|
ef e2 G|de d2 d|cB cgB|AA A2 A|
EF E3|de d3|cd BcB|EB BAA|
[eg]f fee|de ddd|c>B cgB|AA A3|
GA G2 F|EF E2 E|cB cce|dc BBB|
fe fag|ed c3|ef ecA|EB A2 A|
GA G2 F|EF FEE|cB cce|dc BBB|
fe fag|ed c3|ef ecA|EB A2 A||

